build/img/sprite_auto.svg

<svg xmlns="http://www.w3.org/2000/svg" xmlns:xlink="http://www.w3.org/1999/xlink"><symbol id="icon-arrow_left"><path d="M.646 4.354a.5.5 0 010-.708L3.828.464a.5.5 0 11.708.708L1.707 4l2.829 2.828a.5.5 0 11-.708.708L.646 4.354zM14 4.5H1v-1h13v1z"/></symbol><symbol id="icon-arrow_right"><path d="M13.354 4.354a.5.5 0 000-.708L10.172.464a.5.5 0 00-.708.708L12.293 4 9.464 6.828a.5.5 0 10.708.708l3.182-3.182zM0 4.5h13v-1H0v1z"/></symbol><symbol id="icon-burger"><path d="M0 0h23.902v1.859H0zm0 14.341h23.902V16.2H0zM0 7.17h15.297v1.859H0z"/></symbol><symbol id="icon-location"><path d="M4.5 0C2.019 0 0 1.982 0 4.418c0 .635.132 1.242.394 1.803 1.125 2.417 3.282 4.97 3.916 5.694a.252.252 0 00.38 0c.634-.725 2.791-3.276 3.916-5.694A4.241 4.241 0 009 4.418C9 1.982 6.981 0 4.5 0zm0 6.713c-1.289 0-2.338-1.03-2.338-2.295 0-1.266 1.049-2.295 2.338-2.295 1.289 0 2.337 1.03 2.337 2.295S5.79 6.713 4.5 6.713z"/></symbol><symbol id="icon-moon"><path d="M19.527 11.382a.7.7 0 00-.588.128 7.495 7.495 0 01-2.274 1.334 7.1 7.1 0 01-2.582.462A7.503 7.503 0 018.767 11.1a7.556 7.556 0 01-2.198-5.335c0-.872.153-1.718.409-2.488.28-.82.69-1.565 1.227-2.206a.656.656 0 00-.103-.923.701.701 0 00-.588-.128C5.342.61 3.45 1.918 2.096 3.662A10.18 10.18 0 000 9.843a10.14 10.14 0 002.965 7.182A10.066 10.066 0 0010.12 20c2.352 0 4.524-.82 6.263-2.18a10.118 10.118 0 003.578-5.617c.128-.385-.077-.744-.435-.821zm-3.91 5.36a8.715 8.715 0 01-5.444 1.899c-2.429 0-4.627-1-6.211-2.59A8.817 8.817 0 011.38 9.816c0-2.026.665-3.872 1.815-5.36a8.795 8.795 0 012.94-2.462 8.739 8.739 0 00-.359.872c-.332.923-.485 1.898-.485 2.924a8.88 8.88 0 002.581 6.258 8.816 8.816 0 006.237 2.59 8.53 8.53 0 003.041-.538c.333-.128.665-.257.972-.41a9.324 9.324 0 01-2.505 3.052z"/></symbol><symbol id="icon-social_fb" viewBox="0 0 6 11">
<path d="M3.66572 3.98786V2.65633C3.66572 2.28883 3.96398 1.99057 4.33148 1.99057H4.99724V0.326172H3.66572C2.56255 0.326172 1.66844 1.22029 1.66844 2.32345V3.98786H0.336914V5.65226H1.66844V10.9783H3.66572V5.65226H4.99724L5.663 3.98786H3.66572Z"/>
</symbol><symbol id="icon-social_ig" viewBox="0 0 13 13">
<path d="M9.41239 0H3.58745C1.60933 0 0 1.60941 0 3.58753V9.41247C0 11.3907 1.60933 13 3.58745 13H9.41239C11.3907 13 13 11.3906 13 9.41247V3.58753C13.0001 1.60941 11.3907 0 9.41239 0ZM11.8467 9.41247C11.8467 10.7547 10.7547 11.8466 9.41247 11.8466H3.58745C2.24533 11.8467 1.15342 10.7547 1.15342 9.41247V3.58753C1.15342 2.24541 2.24533 1.15342 3.58745 1.15342H9.41239C10.7546 1.15342 11.8466 2.24541 11.8466 3.58753L11.8467 9.41247Z"/>
<path d="M6.50006 3.15033C4.65297 3.15033 3.1503 4.65301 3.1503 6.50011C3.1503 8.34713 4.65297 9.84973 6.50006 9.84973C8.34715 9.84973 9.84982 8.34713 9.84982 6.50011C9.84982 4.65301 8.34715 3.15033 6.50006 3.15033ZM6.50006 8.69623C5.28905 8.69623 4.30372 7.71105 4.30372 6.50003C4.30372 5.28893 5.28897 4.30368 6.50006 4.30368C7.71115 4.30368 8.69641 5.28893 8.69641 6.50003C8.69641 7.71105 7.71108 8.69623 6.50006 8.69623Z"/>
<path d="M9.99027 2.1724C9.76803 2.1724 9.54971 2.26236 9.39276 2.41999C9.23504 2.57686 9.14437 2.79524 9.14437 3.01823C9.14437 3.24053 9.23512 3.45883 9.39276 3.61646C9.54963 3.77333 9.76803 3.86406 9.99027 3.86406C10.2133 3.86406 10.4309 3.77333 10.5885 3.61646C10.7462 3.45883 10.8362 3.24045 10.8362 3.01823C10.8362 2.79524 10.7462 2.57686 10.5885 2.41999C10.4317 2.26236 10.2133 2.1724 9.99027 2.1724Z"/>
</symbol><symbol id="icon-social_vk" viewBox="0 0 12 8">
<path d="M11.8931 6.68356C11.8608 6.62955 11.6613 6.19602 10.7012 5.30495C9.69614 4.37188 9.83115 4.5234 11.0417 2.91003C11.779 1.92745 12.0738 1.32741 11.9816 1.07089C11.8938 0.82637 11.3515 0.890875 11.3515 0.890875L9.54838 0.901376C9.54838 0.901376 9.41487 0.883374 9.31511 0.942629C9.21835 1.00113 9.1561 1.13614 9.1561 1.13614C9.1561 1.13614 8.87033 1.8967 8.4893 2.54325C7.68599 3.9076 7.36421 3.9796 7.23295 3.89485C6.92768 3.69758 7.00419 3.10129 7.00419 2.67826C7.00419 1.35591 7.20445 0.804619 6.61341 0.662108C6.41689 0.614854 6.27288 0.583352 5.7711 0.578102C5.12755 0.571351 4.58226 0.580352 4.27398 0.731113C4.06847 0.831621 3.91021 1.05589 4.00696 1.06864C4.12622 1.08439 4.39624 1.14139 4.5395 1.33641C4.72477 1.58768 4.71802 2.15322 4.71802 2.15322C4.71802 2.15322 4.82453 3.70958 4.46975 3.9031C4.22598 4.03586 3.89221 3.76509 3.1759 2.52675C2.80913 1.89295 2.53161 1.19165 2.53161 1.19165C2.53161 1.19165 2.47835 1.06114 2.38309 0.991383C2.26759 0.906626 2.10557 0.879624 2.10557 0.879624L0.390947 0.890125C0.390947 0.890125 0.133677 0.897626 0.0391703 1.00938C-0.0448359 1.10914 0.0324198 1.31466 0.0324198 1.31466C0.0324198 1.31466 1.37502 4.45514 2.89463 6.03851C4.28899 7.48986 5.8716 7.39461 5.8716 7.39461H6.58866C6.58866 7.39461 6.80542 7.37061 6.91568 7.25135C7.01769 7.14184 7.01394 6.93632 7.01394 6.93632C7.01394 6.93632 6.99969 5.974 7.44672 5.83224C7.887 5.69273 8.45255 6.76231 9.05184 7.17409C9.50487 7.48536 9.84915 7.41711 9.84915 7.41711L11.452 7.39461C11.452 7.39461 12.2906 7.34285 11.8931 6.68356Z"/>
</symbol><symbol id="icon-star"><path d="M7.745 10.605l-.245-.138-.245.138-3.624 2.04.945-3.794.078-.31-.248-.2-3.118-2.522 4.145-.332.294-.023.122-.268L7.5 1.559l1.652 3.637.121.268.294.023 4.145.332-3.118 2.522-.247.2.077.31.945 3.794-3.624-2.04z"/></symbol><symbol id="icon-sun"><path d="M15.655 7.1c-.977-.989-2.357-1.63-3.851-1.63A5.328 5.328 0 007.953 7.1a5.583 5.583 0 00-1.61 3.9c0 1.513.633 2.91 1.61 3.9.977.989 2.356 1.63 3.85 1.63a5.327 5.327 0 003.852-1.63 5.583 5.583 0 001.61-3.9c0-1.513-.604-2.91-1.61-3.9zm-1.035 6.752a3.95 3.95 0 01-2.816 1.164 3.95 3.95 0 01-2.817-1.164A4.052 4.052 0 017.837 11c0-1.106.432-2.124 1.15-2.852a3.95 3.95 0 012.817-1.164 3.95 3.95 0 012.816 1.164A4.051 4.051 0 0115.77 11a4.052 4.052 0 01-1.15 2.852zm7.3-3.609h-2.213a.766.766 0 00-.747.757c0 .407.345.757.747.757h2.213c.403 0 .747-.35.747-.757a.766.766 0 00-.747-.757zm-10.116 8.003a.766.766 0 00-.747.757v2.24c0 .408.345.757.747.757s.747-.35.747-.757v-2.24a.766.766 0 00-.747-.757zm7.673-.524l-1.58-1.6c-.259-.291-.747-.291-1.035 0a.744.744 0 000 1.047l1.58 1.6a.722.722 0 001.035 0 .744.744 0 000-1.047zM11.804 0a.766.766 0 00-.747.757v2.24c0 .408.345.757.747.757s.747-.35.747-.757V.757A.766.766 0 0011.804 0zm7.702 3.23a.722.722 0 00-1.035 0l-1.58 1.6a.744.744 0 000 1.048c.259.291.747.291 1.035 0l1.58-1.6a.744.744 0 000-1.048zM3.9 10.243H1.689A.766.766 0 00.94 11c0 .407.317.757.748.757H3.9c.402 0 .747-.35.747-.757a.766.766 0 00-.747-.757zm2.817 5.879c-.259-.291-.747-.291-1.035 0l-1.58 1.6a.744.744 0 000 1.048.722.722 0 001.034 0l1.581-1.6a.744.744 0 000-1.048zm0-11.292l-1.58-1.6a.722.722 0 00-1.035 0 .744.744 0 000 1.048l1.58 1.6a.722.722 0 001.035 0 .744.744 0 000-1.047z"/></symbol><symbol id="logo" viewBox="0 0 62 62">
<path d="M22.7825 40.1768L28.2395 34.447L34.4468 40.1768H45.0878L28.1713 23.6013L11.3911 40.1768H22.7825Z"/>
<path d="M38.4033 13.5742L30.3543 21.7596L35.6749 27.2166L38.4033 24.4881L53.3418 39.3583C49.9312 48.4305 41.2 54.9106 30.9 54.9106C17.6669 54.9106 6.95762 44.2014 6.95762 30.9682C7.02583 17.7351 17.7351 7.02583 30.9682 7.02583C42.7007 7.02583 52.5232 15.5523 54.5014 26.6709L61.7318 34.3106C61.8683 33.2192 61.9365 32.0596 61.9365 30.9682C61.9365 22.7146 58.7305 14.9384 52.8643 9.07219C46.998 3.20596 39.2219 0 30.9682 0C22.6464 0 14.9384 3.20596 9.07219 9.07219C3.20596 14.9384 0 22.6464 0 30.9682C0 39.2901 3.20596 46.998 9.07219 52.8643C14.9384 58.7305 22.7146 61.9365 30.9682 61.9365C39.2219 61.9365 46.998 58.7305 52.8643 52.8643C56.4795 49.249 59.0716 44.9517 60.504 40.2451C60.7769 39.4265 60.9815 38.5398 61.1861 37.7212L54.9106 31.1047L38.4033 13.5742Z"/>
</symbol></svg>

<svg xmlns="http://www.w3.org/2000/svg" xmlns:xlink="http://www.w3.org/1999/xlink"><defs><clipPath><path d="M.674.326h10.652v10.652H.674z"/></clipPath><clipPath><path d="M0 0h12v12H0z"/></clipPath><clipPath><path d="M0 0h61.868v61.868H0z"/></clipPath></defs><symbol id="icon-arrow_left"><path d="M.646 4.354a.5.5 0 010-.708L3.828.464a.5.5 0 11.708.708L1.707 4l2.829 2.828a.5.5 0 11-.708.708L.646 4.354zM14 4.5H1v-1h13v1z"/></symbol><symbol id="icon-arrow_right"><path d="M13.354 4.354a.5.5 0 000-.708L10.172.464a.5.5 0 00-.708.708L12.293 4 9.464 6.828a.5.5 0 10.708.708l3.182-3.182zM0 4.5h13v-1H0v1z"/></symbol><symbol id="icon-burger"><path d="M0 0h23.902v1.859H0zm0 14.341h23.902V16.2H0zM0 7.17h15.297v1.859H0z"/></symbol><symbol id="icon-location"><path d="M4.5 0C2.019 0 0 1.982 0 4.418c0 .635.132 1.242.394 1.803 1.125 2.417 3.282 4.97 3.916 5.694a.252.252 0 00.38 0c.634-.725 2.791-3.276 3.916-5.694A4.241 4.241 0 009 4.418C9 1.982 6.981 0 4.5 0zm0 6.713c-1.289 0-2.338-1.03-2.338-2.295 0-1.266 1.049-2.295 2.338-2.295 1.289 0 2.337 1.03 2.337 2.295S5.79 6.713 4.5 6.713z"/></symbol><symbol id="icon-moon"><path d="M19.527 11.382a.7.7 0 00-.588.128 7.495 7.495 0 01-2.274 1.334 7.1 7.1 0 01-2.582.462A7.503 7.503 0 018.767 11.1a7.556 7.556 0 01-2.198-5.335c0-.872.153-1.718.409-2.488.28-.82.69-1.565 1.227-2.206a.656.656 0 00-.103-.923.701.701 0 00-.588-.128C5.342.61 3.45 1.918 2.096 3.662A10.18 10.18 0 000 9.843a10.14 10.14 0 002.965 7.182A10.066 10.066 0 0010.12 20c2.352 0 4.524-.82 6.263-2.18a10.118 10.118 0 003.578-5.617c.128-.385-.077-.744-.435-.821zm-3.91 5.36a8.715 8.715 0 01-5.444 1.899c-2.429 0-4.627-1-6.211-2.59A8.817 8.817 0 011.38 9.816c0-2.026.665-3.872 1.815-5.36a8.795 8.795 0 012.94-2.462 8.739 8.739 0 00-.359.872c-.332.923-.485 1.898-.485 2.924a8.88 8.88 0 002.581 6.258 8.816 8.816 0 006.237 2.59 8.53 8.53 0 003.041-.538c.333-.128.665-.257.972-.41a9.324 9.324 0 01-2.505 3.052z"/></symbol><symbol id="icon-social_fb"><g><path d="M6.666 3.988V2.656c0-.367.298-.665.665-.665h.666V.326H6.666a1.997 1.997 0 00-1.998 1.997v1.665H3.337v1.664h1.331v5.326h1.998V5.652h1.331l.666-1.664H6.666z"/></g></symbol><symbol id="icon-social_ig"><path d="M9.412 0H3.587A3.592 3.592 0 000 3.588v5.824A3.592 3.592 0 003.587 13h5.825A3.592 3.592 0 0013 9.412V3.588A3.592 3.592 0 009.412 0zm2.435 9.412a2.437 2.437 0 01-2.435 2.435H3.587a2.437 2.437 0 01-2.434-2.435V3.588a2.437 2.437 0 012.434-2.435h5.825a2.437 2.437 0 012.435 2.435v5.824z"/><path d="M6.5 3.15A3.354 3.354 0 003.15 6.5 3.353 3.353 0 006.5 9.85 3.353 3.353 0 009.85 6.5 3.354 3.354 0 006.5 3.15zm0 5.546A2.199 2.199 0 014.304 6.5c0-1.211.985-2.196 2.196-2.196 1.211 0 2.196.985 2.196 2.196A2.199 2.199 0 016.5 8.696zm3.49-6.524a.85.85 0 00-.846.846c0 .223.091.44.249.598a.852.852 0 00.597.248.85.85 0 00.598-.248.85.85 0 00-.598-1.444z"/></symbol><symbol id="icon-social_vk"><g><path d="M11.893 8.684c-.032-.054-.232-.488-1.192-1.379-1.005-.933-.87-.782.34-2.395.738-.983 1.033-1.583.94-1.84-.087-.244-.63-.18-.63-.18l-1.803.011s-.133-.018-.233.042c-.097.058-.159.193-.159.193s-.286.76-.667 1.407C7.686 5.908 7.364 5.98 7.233 5.895c-.305-.197-.229-.794-.229-1.217 0-1.322.2-1.873-.39-2.016-.197-.047-.341-.079-.843-.084-.643-.007-1.189.002-1.497.153-.206.1-.364.325-.267.338.12.015.39.072.533.267.185.252.178.817.178.817s.107 1.557-.248 1.75c-.244.133-.578-.138-1.294-1.376a11.544 11.544 0 01-.644-1.335s-.054-.13-.149-.2a.741.741 0 00-.277-.112L.39 2.89s-.257.008-.352.12c-.084.1-.007.305-.007.305s1.343 3.14 2.863 4.724c1.394 1.45 2.977 1.356 2.977 1.356h.717s.216-.024.327-.144c.102-.11.098-.315.098-.315S7 7.974 7.447 7.832c.44-.14 1.006.93 1.605 1.342.453.311.797.243.797.243l1.603-.022s.839-.052.441-.711z"/></g></symbol><symbol id="icon-star"><path d="M7.745 10.605l-.245-.138-.245.138-3.624 2.04.945-3.794.078-.31-.248-.2-3.118-2.522 4.145-.332.294-.023.122-.268L7.5 1.559l1.652 3.637.121.268.294.023 4.145.332-3.118 2.522-.247.2.077.31.945 3.794-3.624-2.04z"/></symbol><symbol id="icon-sun"><path d="M15.655 7.1c-.977-.989-2.357-1.63-3.851-1.63A5.328 5.328 0 007.953 7.1a5.583 5.583 0 00-1.61 3.9c0 1.513.633 2.91 1.61 3.9.977.989 2.356 1.63 3.85 1.63a5.327 5.327 0 003.852-1.63 5.583 5.583 0 001.61-3.9c0-1.513-.604-2.91-1.61-3.9zm-1.035 6.752a3.95 3.95 0 01-2.816 1.164 3.95 3.95 0 01-2.817-1.164A4.052 4.052 0 017.837 11c0-1.106.432-2.124 1.15-2.852a3.95 3.95 0 012.817-1.164 3.95 3.95 0 012.816 1.164A4.051 4.051 0 0115.77 11a4.052 4.052 0 01-1.15 2.852zm7.3-3.609h-2.213a.766.766 0 00-.747.757c0 .407.345.757.747.757h2.213c.403 0 .747-.35.747-.757a.766.766 0 00-.747-.757zm-10.116 8.003a.766.766 0 00-.747.757v2.24c0 .408.345.757.747.757s.747-.35.747-.757v-2.24a.766.766 0 00-.747-.757zm7.673-.524l-1.58-1.6c-.259-.291-.747-.291-1.035 0a.744.744 0 000 1.047l1.58 1.6a.722.722 0 001.035 0 .744.744 0 000-1.047zM11.804 0a.766.766 0 00-.747.757v2.24c0 .408.345.757.747.757s.747-.35.747-.757V.757A.766.766 0 0011.804 0zm7.702 3.23a.722.722 0 00-1.035 0l-1.58 1.6a.744.744 0 000 1.048c.259.291.747.291 1.035 0l1.58-1.6a.744.744 0 000-1.048zM3.9 10.243H1.689A.766.766 0 00.94 11c0 .407.317.757.748.757H3.9c.402 0 .747-.35.747-.757a.766.766 0 00-.747-.757zm2.817 5.879c-.259-.291-.747-.291-1.035 0l-1.58 1.6a.744.744 0 000 1.048.722.722 0 001.034 0l1.581-1.6a.744.744 0 000-1.048zm0-11.292l-1.58-1.6a.722.722 0 00-1.035 0 .744.744 0 000 1.048l1.58 1.6a.722.722 0 001.035 0 .744.744 0 000-1.047z"/></symbol><symbol id="logo"><g><path d="M22.782 40.177l5.457-5.73 6.208 5.73h10.64L28.172 23.6l-16.78 16.576h11.391z"/><path d="M38.403 13.574l-8.049 8.186 5.32 5.457 2.73-2.729 14.938 14.87C49.932 48.431 41.2 54.911 30.9 54.911c-13.233 0-23.942-10.71-23.942-23.943.068-13.233 10.777-23.942 24.01-23.942 11.733 0 21.555 8.526 23.533 19.645l7.23 7.64a27.46 27.46 0 00.206-3.343c0-8.253-3.206-16.03-9.073-21.896C46.998 3.206 39.222 0 30.968 0c-8.322 0-16.03 3.206-21.896 9.072S0 22.646 0 30.968c0 8.322 3.206 16.03 9.072 21.896 5.866 5.867 13.643 9.073 21.896 9.073 8.254 0 16.03-3.206 21.896-9.073 3.616-3.615 6.208-7.912 7.64-12.619.273-.819.477-1.705.682-2.524l-6.275-6.616-16.508-17.53z"/></g></symbol></svg>
